app/packs/images/decidim/half_signup/chatbubble-sms-outline.svg

<svg
   xmlns="http://www.w3.org/2000/svg"
   viewBox="0 0 512 512"
   height="512"
   width="512">
  <path
    id="chatbubble-sms-outline"
     d="M 255.83008,32 C 132.2993,32 31.639844,130.25205 32,251.35938 c 0.0023,42.22915 12.395783,83.53411 35.642578,118.78906 l 0.251953,0.38086 0.273438,0.36914 c 0.541291,0.72673 1.039255,1.48347 1.509765,2.25781 1.685578,3.03679 1.023849,7.6072 2.371094,2.64844 l -19.529297,70.65039 c -0.633901,2.15502 -1.037447,4.37127 -1.205078,6.61133 l -0.03516,0.47851 -0.0078,0.48242 C 51.066401,468.08367 62.733253,479.95757 76.791016,480 l 0.859375,0.002 0.851562,-0.0879 c 3.21875,-0.33634 6.369813,-1.16047 9.341797,-2.4414 l -0.902344,0.35742 68.238284,-24.62696 0.39843,-0.16992 c 1.83201,-0.77564 3.8016,-1.17162 5.79102,-1.16406 h 0.0215 0.0215 c 1.84552,0.002 3.67384,0.34371 5.39648,1.00586 l -0.0215,-0.01 c 3.95398,1.5269 17.49606,6.57725 31.83984,10.5918 15.10575,4.22782 39.80199,8.96289 60.78321,8.96289 C 383.08413,472.42011 480,372.39188 480,251.49023 v -0.004 -0.002 c -0.005,-15.11821 -1.6056,-30.194 -4.77344,-44.97657 C 454.05392,106.74092 363.5916,32 255.83008,32 Z m 0,32 c 92.99039,0 170.10174,64.32811 188.09765,149.16992 l 0.004,0.0176 0.004,0.0156 c 2.69775,12.58556 4.06,25.42153 4.06445,38.29297 -0.003,103.91544 -82.06608,188.92383 -188.58984,188.92383 -15.61875,0 -40.32398,-4.46516 -52.15821,-7.77734 -12.59619,-3.52544 -25.95149,-8.47581 -28.9375,-9.62891 l -0.0117,-0.004 -0.0117,-0.004 c -5.36844,-2.06353 -11.07103,-3.12569 -16.82227,-3.13477 -6.01976,-0.0201 -11.97938,1.13723 -17.56055,3.37891 -0.01,0.004 -0.0198,0.006 -0.0293,0.01 l -57.484379,20.74804 16.527349,-59.77929 0.008,-0.0332 c 3.73766,-13.7571 -2.21564,-21.25173 -5.500002,-26.99609 l -0.07422,-0.13086 -0.07813,-0.13086 c -0.913931,-1.53074 -1.906736,-3.01087 -2.951172,-4.45508 C 74.542092,322.45903 63.998741,287.29636 64,251.33984 v -0.0254 -0.0234 C 63.677663,147.91298 149.17177,64 255.83008,64 Z m -79.06446,143.60547 c -5.89333,0 -11.13713,1.12752 -15.73046,3.38086 -4.50667,2.25333 -8.06016,5.28627 -10.66016,9.09961 -2.51333,3.81333 -3.76953,8.06023 -3.76953,12.74023 0,4.07334 0.82404,7.62682 2.4707,10.66016 1.64667,3.03333 3.76914,5.58992 6.36914,7.66992 2.6,1.99333 5.32946,3.59721 8.18946,4.81055 l 11.05078,4.67968 c 3.72666,1.56 6.67317,2.98907 8.83984,4.28907 2.25333,1.21333 3.38086,3.16294 3.38086,5.84961 0,2.51333 -0.9969,4.50713 -2.99023,5.98046 -1.90667,1.47335 -4.85318,2.21094 -8.83985,2.21094 -3.46666,0 -7.06435,-0.82403 -10.79101,-2.4707 -3.72667,-1.64667 -7.1073,-3.76914 -10.14063,-6.36914 l -10.91992,13.1289 c 4.33333,3.98668 9.23141,7.01961 14.69141,9.09961 5.54666,2.08 11.092,3.1211 16.63867,3.1211 6.76,0 12.52435,-1.21396 17.29101,-3.64063 4.76667,-2.42666 8.4066,-5.63247 10.91992,-9.61914 2.51334,-3.98666 3.76954,-8.32 3.76954,-13 0,-5.98 -1.51745,-10.79164 -4.55078,-14.43164 -3.03334,-3.64 -7.10542,-6.49812 -12.21876,-8.57812 l -10.91992,-4.42188 c -3.64,-1.47333 -6.71713,-2.8582 -9.23047,-4.1582 -2.42666,-1.3 -3.64062,-3.25156 -3.64062,-5.85156 0,-2.42667 0.95466,-4.28985 2.86133,-5.58985 1.99333,-1.38666 4.63635,-2.08008 7.92968,-2.08008 3.38,0 6.45714,0.60698 9.23047,1.82032 2.77334,1.12666 5.54503,2.77278 8.31836,4.93945 l 9.75,-12.08984 c -3.64,-3.64 -7.88494,-6.4117 -12.73828,-8.31836 -4.85333,-1.90667 -9.70721,-2.86133 -14.56055,-2.86133 z m 171.33985,0 c -5.89333,0 -11.13714,1.12752 -15.73047,3.38086 -4.50667,2.25333 -8.06016,5.28627 -10.66016,9.09961 -2.51333,3.81333 -3.76953,8.06023 -3.76953,12.74023 0,4.07334 0.82404,7.62682 2.47071,10.66016 1.64666,3.03333 3.76914,5.58992 6.36914,7.66992 2.6,1.99333 5.32945,3.59721 8.18945,4.81055 l 11.05078,4.67968 c 3.72667,1.56 6.67318,2.98907 8.83984,4.28907 2.25334,1.21333 3.38086,3.16294 3.38086,5.84961 0,2.51333 -0.9969,4.50713 -2.99023,5.98046 -1.90667,1.47335 -4.85318,2.21094 -8.83984,2.21094 -3.46667,0 -7.06435,-0.82403 -10.79102,-2.4707 -3.72667,-1.64667 -7.10729,-3.76914 -10.14062,-6.36914 l -10.91993,13.1289 c 4.33334,3.98668 9.23141,7.01961 14.69141,9.09961 5.54667,2.08 11.092,3.1211 16.63867,3.1211 6.76,0 12.52435,-1.21396 17.29102,-3.64063 4.76666,-2.42666 8.40659,-5.63247 10.91992,-9.61914 2.51333,-3.98666 3.76953,-8.32 3.76953,-13 0,-5.98 -1.51745,-10.79164 -4.55078,-14.43164 -3.03333,-3.64 -7.10542,-6.49812 -12.21875,-8.57812 l -10.91992,-4.42188 c -3.64,-1.47333 -6.71714,-2.8582 -9.23047,-4.1582 -2.42667,-1.3 -3.64063,-3.25156 -3.64063,-5.85156 0,-2.42667 0.95466,-4.28985 2.86133,-5.58985 1.99333,-1.38666 4.63636,-2.08008 7.92969,-2.08008 3.38,0 6.45713,0.60698 9.23047,1.82032 2.77333,1.12666 5.54502,2.77278 8.31836,4.93945 l 9.75,-12.08984 c -3.64,-3.64 -7.88495,-6.4117 -12.73828,-8.31836 -4.85334,-1.90667 -9.70722,-2.86133 -14.56055,-2.86133 z m -127.14063,1.56055 v 84.75976 H 238.125 v -31.07031 c 0,-2.77333 -0.17286,-5.85047 -0.51953,-9.23047 -0.26,-3.46667 -0.56349,-6.93177 -0.91016,-10.39844 -0.34666,-3.46666 -0.69239,-6.5438 -1.03906,-9.23047 h 0.51953 l 6.75977,20.15039 12.08984,32.36914 h 10.5293 l 12.08984,-32.36914 6.89063,-20.15039 h 0.51953 c -0.26,2.68667 -0.60573,5.76381 -1.03907,9.23047 l -1.04101,10.39844 c -0.26,3.38 -0.38867,6.45714 -0.38867,9.23047 v 31.07031 h 17.41992 v -84.75976 h -20.80078 l -13.39063,37.69921 c -0.86666,2.42667 -1.68875,4.98326 -2.46875,7.66993 -0.69333,2.68666 -1.47317,5.33164 -2.33984,7.93164 h -0.52148 c -0.86667,-2.6 -1.68876,-5.24498 -2.46876,-7.93164 -0.77998,-2.68667 -1.60403,-5.24326 -2.4707,-7.66993 l -13.65039,-37.69921 z"
    />
</svg>

<?xml version="1.0" encoding="UTF-8" standalone="no"?>
<svg
   width="512"
   height="512"
   viewBox="0 0 512 512"
   version="1.1"
   id="svg4"
   xmlns="http://www.w3.org/2000/svg"
   xmlns:svg="http://www.w3.org/2000/svg">
  <defs
     id="defs8" />
  <path
     id="path2"
     style="color:#000000;fill:#000000;stroke-linecap:round;stroke-miterlimit:10;-inkscape-stroke:none"
     d="M 255.83008 32 C 132.2993 32 31.639844 130.25205 32 251.35938 C 32.0023 293.58853 44.395783 334.89349 67.642578 370.14844 L 67.894531 370.5293 L 68.167969 370.89844 C 68.70926 371.62517 69.207224 372.38191 69.677734 373.15625 C 71.363312 376.19304 70.701583 380.76345 72.048828 375.80469 L 52.519531 446.45508 C 51.88563 448.6101 51.482084 450.82635 51.314453 453.06641 L 51.279297 453.54492 L 51.271484 454.02734 C 51.066401 468.08367 62.733253 479.95757 76.791016 480 L 77.650391 480.00195 L 78.501953 479.91406 C 81.720703 479.57772 84.871766 478.75359 87.84375 477.47266 L 86.941406 477.83008 L 155.17969 453.20312 L 155.57812 453.0332 C 157.41013 452.25756 159.37972 451.86158 161.36914 451.86914 L 161.39062 451.86914 L 161.41211 451.86914 C 163.25763 451.87114 165.08595 452.21285 166.80859 452.875 L 166.78711 452.86523 C 170.74109 454.39213 184.28317 459.44248 198.62695 463.45703 C 213.7327 467.68485 238.42894 472.41992 259.41016 472.41992 C 383.08413 472.42011 480 372.39188 480 251.49023 L 480 251.48633 L 480 251.48438 C 479.995 236.36617 478.3944 221.29038 475.22656 206.50781 C 454.05392 106.74092 363.5916 32 255.83008 32 z M 255.83008 64 C 348.82047 64 425.93182 128.32811 443.92773 213.16992 L 443.93164 213.1875 L 443.93555 213.20312 C 446.6333 225.78868 447.99555 238.62465 448 251.49609 C 447.997 355.41153 365.93392 440.41992 259.41016 440.41992 C 243.79141 440.41992 219.08618 435.95476 207.25195 432.64258 C 194.65576 429.11714 181.30046 424.16677 178.31445 423.01367 L 178.30273 423.00977 L 178.29102 423.00586 C 172.92258 420.94233 167.21999 419.88017 161.46875 419.87109 C 155.15985 419.84999 148.91138 421.10662 143.10156 423.56641 L 143.9082 423.25 L 86.394531 444.00781 L 102.92188 384.22852 L 102.92969 384.19531 C 106.66735 370.43821 100.71405 362.94358 97.429688 357.19922 L 97.355469 357.06836 L 97.277344 356.9375 C 96.21705 355.16162 95.067529 353.44197 93.832031 351.7832 L 94.357422 352.53125 C 74.552757 322.49724 63.99874 287.31569 64 251.33984 L 64 251.31445 L 64 251.29102 C 63.677663 147.91298 149.17177 64 255.83008 64 z M 176.76562 207.60547 C 170.87229 207.60547 165.62849 208.73299 161.03516 210.98633 C 156.52849 213.23966 152.975 216.2726 150.375 220.08594 C 147.86167 223.89927 146.60547 228.14617 146.60547 232.82617 C 146.60547 236.89951 147.42951 240.45299 149.07617 243.48633 C 150.72284 246.51966 152.84531 249.07625 155.44531 251.15625 C 158.04531 253.14958 160.77477 254.75346 163.63477 255.9668 L 174.68555 260.64648 C 178.41221 262.20648 181.35872 263.63555 183.52539 264.93555 C 185.77872 266.14888 186.90625 268.09849 186.90625 270.78516 C 186.90625 273.29849 185.90935 275.29229 183.91602 276.76562 C 182.00935 278.23896 179.06284 278.97656 175.07617 278.97656 C 171.60951 278.97656 168.01182 278.15253 164.28516 276.50586 C 160.55849 274.85919 157.17786 272.73672 154.14453 270.13672 L 143.22461 283.26562 C 147.55794 287.25229 152.45602 290.28523 157.91602 292.36523 C 163.46268 294.44523 169.00802 295.48633 174.55469 295.48633 C 181.31469 295.48633 187.07904 294.27237 191.8457 291.8457 C 196.61237 289.41904 200.25229 286.21323 202.76562 282.22656 C 205.27896 278.2399 206.53516 273.90656 206.53516 269.22656 C 206.53516 263.24656 205.01771 258.43492 201.98438 254.79492 C 198.95104 251.15492 194.87896 248.2968 189.76562 246.2168 L 178.8457 241.79492 C 175.2057 240.32159 172.12857 238.93672 169.61523 237.63672 C 167.18857 236.33672 165.97461 234.38516 165.97461 231.78516 C 165.97461 229.35849 166.92927 227.49531 168.83594 226.19531 C 170.82927 224.80865 173.47229 224.11523 176.76562 224.11523 C 180.14562 224.11523 183.22276 224.72221 185.99609 225.93555 C 188.76943 227.06221 191.54112 228.70833 194.31445 230.875 L 204.06445 218.78516 C 200.42445 215.14516 196.17951 212.37346 191.32617 210.4668 C 186.47284 208.56013 181.61896 207.60547 176.76562 207.60547 z M 348.10547 207.60547 C 342.21214 207.60547 336.96833 208.73299 332.375 210.98633 C 327.86833 213.23966 324.31484 216.2726 321.71484 220.08594 C 319.20151 223.89927 317.94531 228.14617 317.94531 232.82617 C 317.94531 236.89951 318.76935 240.45299 320.41602 243.48633 C 322.06268 246.51966 324.18516 249.07625 326.78516 251.15625 C 329.38516 253.14958 332.11461 254.75346 334.97461 255.9668 L 346.02539 260.64648 C 349.75206 262.20648 352.69857 263.63555 354.86523 264.93555 C 357.11857 266.14888 358.24609 268.09849 358.24609 270.78516 C 358.24609 273.29849 357.24919 275.29229 355.25586 276.76562 C 353.34919 278.23896 350.40268 278.97656 346.41602 278.97656 C 342.94935 278.97656 339.35167 278.15253 335.625 276.50586 C 331.89833 274.85919 328.51771 272.73672 325.48438 270.13672 L 314.56445 283.26562 C 318.89779 287.25229 323.79586 290.28523 329.25586 292.36523 C 334.80253 294.44523 340.34786 295.48633 345.89453 295.48633 C 352.65453 295.48633 358.41888 294.27237 363.18555 291.8457 C 367.95221 289.41904 371.59214 286.21323 374.10547 282.22656 C 376.6188 278.2399 377.875 273.90656 377.875 269.22656 C 377.875 263.24656 376.35755 258.43492 373.32422 254.79492 C 370.29089 251.15492 366.2188 248.2968 361.10547 246.2168 L 350.18555 241.79492 C 346.54555 240.32159 343.46841 238.93672 340.95508 237.63672 C 338.52841 236.33672 337.31445 234.38516 337.31445 231.78516 C 337.31445 229.35849 338.26911 227.49531 340.17578 226.19531 C 342.16911 224.80865 344.81214 224.11523 348.10547 224.11523 C 351.48547 224.11523 354.5626 224.72221 357.33594 225.93555 C 360.10927 227.06221 362.88096 228.70833 365.6543 230.875 L 375.4043 218.78516 C 371.7643 215.14516 367.51935 212.37346 362.66602 210.4668 C 357.81268 208.56013 352.9588 207.60547 348.10547 207.60547 z M 220.96484 209.16602 L 220.96484 293.92578 L 238.125 293.92578 L 238.125 262.85547 C 238.125 260.08214 237.95214 257.005 237.60547 253.625 C 237.34547 250.15833 237.04198 246.69323 236.69531 243.22656 C 236.34865 239.7599 236.00292 236.68276 235.65625 233.99609 L 236.17578 233.99609 L 242.93555 254.14648 L 255.02539 286.51562 L 265.55469 286.51562 L 277.64453 254.14648 L 284.53516 233.99609 L 285.05469 233.99609 C 284.79469 236.68276 284.44896 239.7599 284.01562 243.22656 L 282.97461 253.625 C 282.71461 257.005 282.58594 260.08214 282.58594 262.85547 L 282.58594 293.92578 L 300.00586 293.92578 L 300.00586 209.16602 L 279.20508 209.16602 L 265.81445 246.86523 C 264.94779 249.2919 264.1257 251.84849 263.3457 254.53516 C 262.65237 257.22182 261.87253 259.8668 261.00586 262.4668 L 260.48438 262.4668 C 259.61771 259.8668 258.79562 257.22182 258.01562 254.53516 C 257.23563 251.84849 256.41159 249.2919 255.54492 246.86523 L 241.89453 209.16602 L 220.96484 209.16602 z " />
</svg>
